svgs/regular/charging-station.svg

<svg xmlns="http://www.w3.org/2000/svg" viewBox="0 0 576 512"><!--! Font Awesome Pro 6.5.1 by @fontawesome - https://fontawesome.com License - https://fontawesome.com/license (Commercial License) Copyright 2023 Fonticons, Inc. --><path d="M96 48c-8.8 0-16 7.2-16 16V464H272V64c0-8.8-7.2-16-16-16H96zM32 464V64C32 28.7 60.7 0 96 0H256c35.3 0 64 28.7 64 64V256h8c48.6 0 88 39.4 88 88v28c0 15.5 12.5 28 28 28s28-12.5 28-28V268.3c-32.5-10.2-56-40.5-56-76.3V152c0-13.3 10.7-24 24-24h8V80c0-8.8 7.2-16 16-16s16 7.2 16 16v48h32V80c0-8.8 7.2-16 16-16s16 7.2 16 16v48h8c13.3 0 24 10.7 24 24v40c0 35.8-23.5 66.1-56 76.3V372c0 42-34 76-76 76s-76-34-76-76V344c0-22.1-17.9-40-40-40h-8V464l8 0c13.3 0 24 10.7 24 24s-10.7 24-24 24h-8H272 80 32 24c-13.3 0-24-10.7-24-24s10.7-24 24-24l8 0zM464 192c0 17.7 14.3 32 32 32s32-14.3 32-32V176H464v16zM222.9 117.9L199.6 176H240c6.7 0 12.8 4.2 15 10.6s.4 13.4-4.8 17.7l-96 80c-5.6 4.7-13.7 5-19.6 .7s-8.2-12.1-5.5-18.9L152.4 208H112c-6.7 0-12.8-4.2-15-10.6s-.4-13.4 4.8-17.7l96-80c5.6-4.7 13.7-5 19.6-.7s8.2 12.1 5.5 18.9z"/></svg>

<svg xmlns="http://www.w3.org/2000/svg" viewBox="0 0 576 512"><!--! Font Awesome Pro 6.1.1 by @fontawesome - https://fontawesome.com License - https://fontawesome.com/license (Commercial License) Copyright 2022 Fonticons, Inc. --><path d="M199.6 176H240C246.7 176 252.8 180.2 255 186.6C257.3 192.9 255.4 199.1 250.2 204.3L154.2 284.3C148.6 288.1 140.5 289.2 134.6 284.9C128.7 280.6 126.4 272.9 129.1 266.1L152.4 208H112C105.3 208 99.25 203.8 96.96 197.4C94.66 191.1 96.58 184 101.8 179.7L197.8 99.71C203.4 95.02 211.5 94.75 217.4 99.06C223.3 103.4 225.6 111.1 222.9 117.9L199.6 176zM32 464V64C32 28.65 60.65 0 96 0H256C291.3 0 320 28.65 320 64V256H328C376.6 256 416 295.4 416 344V372C416 387.5 428.5 400 444 400C459.5 400 472 387.5 472 372V268.3C439.5 258.1 416 227.8 416 192V152C416 138.7 426.7 128 440 128H448V80C448 71.16 455.2 64 464 64C472.8 64 480 71.16 480 80V128H512V80C512 71.16 519.2 64 528 64C536.8 64 544 71.16 544 80V128H552C565.3 128 576 138.7 576 152V192C576 227.8 552.5 258.1 520 268.3V372C520 413.1 485.1 448 444 448C402 448 368 413.1 368 372V344C368 321.9 350.1 304 328 304H320V464H328C341.3 464 352 474.7 352 488C352 501.3 341.3 512 328 512H24C10.75 512 0 501.3 0 488C0 474.7 10.75 464 24 464H32zM80 64V464H272V64C272 55.16 264.8 48 256 48H96C87.16 48 80 55.16 80 64zM496 224C513.7 224 528 209.7 528 192V176H464V192C464 209.7 478.3 224 496 224z"/></svg>
